X:1
T:No. 10 The Lark
T:The Lark
T:From "A Farewell to Saint Petersburg" (No. 10)
T:Mikhail Glinka 1804 - 1857
T:Arr. for piano by Mily Balakirew
C:Mikhail Glinka
Z:Arr. for piano by Mily Balakirew
%%score { ( 1 3 ) | ( 2 4 5 ) }
L:1/8
Q:1/4=60
M:4/4
K:Db
V:1 treble nm="Piano" snm="Pno."
V:3 treble 
V:2 bass 
V:4 bass 
V:5 bass 
V:1
"^Andante quasi recitativo."!p! F2 B2 A2 G2 |[Q:1/4=50] F3!pp! D/E/[Q:1/4=30] !fermata!F4 | %2
!pp![Q:1/4=60] z[Q:1/4=76] d{/cd}c/B/b[Q:1/4=60] z[Q:1/4=76] d'{/c'd'}c'/b/g | %3
[Q:1/4=60] z[Q:1/4=66]!>(! f'{/e'f'}e'/d'/[Q:1/4=40]!8va(!b'/a'/!>)!!pp! f''!8va)! z[Q:1/4=30] !fermata!z2 | %4
[Q:1/4=60]!mf! A2{/BA} GF B3 B | E3!p! F[Q:1/4=30] !fermata!G4 | %6
[Q:1/4=60]!pp! z[Q:1/4=76] g{/fg}f/e/e'[Q:1/4=60] z[Q:1/4=76] g'{/f'g'}f'/e'/_c' | %7
[Q:1/4=60] z[Q:1/4=66]!8va(!!>(! b'{/a'b'}a'/g'/[Q:1/4=40]e''/d''/!>)!!pp! g''!8va)! z[Q:1/4=30] !fermata!z2 | %8
!mf![Q:1/4=60] B3 A/F/ B3 G/E/ | C3!p! D[Q:1/4=30] !fermata!E4 | %10
[Q:1/4=60]!pp! z[Q:1/4=76] g{/fg}f/e/c[Q:1/4=60] z[Q:1/4=76] e'{/d'e'}d'/c'/e' | %11
[Q:1/4=60] z!8va(!!>(! c''{/g'a'}g'/f'/[Q:1/4=40]d''/c''/!>)!!pp! f''!8va)! z !fermata!z2 | %12
[Q:1/4=70]"^Andantino"!p! z8[Q:1/4=76] |!p! f2 b2 a2 g2 | f3 d/e/ f4[Q:1/4=68] | %15
[Q:1/4=76] e3 d/c/ f3 f | B3 c d4[Q:1/4=68] |!p![Q:1/4=76] f2 b2 a2 g2 | f3 d/e/ f4[Q:1/4=68] | %19
!mp! a3[Q:1/4=66] f/d/[Q:1/4=76] a3[Q:1/4=66] g/e/ |[Q:1/4=76] d3!p! e f4[Q:1/4=68] | %21
[Q:1/4=76] f2 b2 a2 f2 | d2 a2 g4[Q:1/4=68] |!mp![Q:1/4=76] f2 _c'2 b3[Q:1/4=68] f | %24
!mp![Q:1/4=76] a4!p! g4[Q:1/4=68] |[Q:1/4=76] f2 b2 a2 g2 | f3 e d4 | c3 d/e/ d2 B2 | f4 B4 | %29
 f2 b2 a2 g2 | f3 e d4 | %31
 c>c eg!<(! Tf/4g/4f/4g/4f/4g/4f3/16g3/16f3/16g3/16f3/16g3/16f3/16g3/16f3/16g3/16f3/16g3/16f/8>g/8-!<)! | %32
!f! g/8f3/16g3/16f3/16g3/16f3/16g3/16f3/16g3/16f3/16g3/16f3/16g3/16f3/16g3/16f3/16g3/16f3/16g3/16f3/16g3/16f3/16!>(!g3/16f3/16g3/16f3/16g3/16f3/16g3/16f3/16g3/16f3/16f3/16g3/16f3/16g3/16f3/16g3/16f3/16g3/16f3/16g3/16f3/16 | %33
 g/8f3/16g3/16f3/16g3/16f3/16g3/16f3/16g3/16f3/16g3/16f3/16g3/16f3/16g3/16f3/16g3/16f3/16g3/16f3/16g3/16f3/16g3/16f3/16g3/16f3/16g3/16f3/16g3/16f3/16g3/16f3/16f3/16g3/16!>)!!pp!f3/16g3/16f3/16g/8=e/f/ | %34
!<(! (6:4:6a/4g/4_e/4c/4A/4G/4(6:4:6E/4C/4E/4G/4A/4c/4(6:4:6e/4g/4a/4c'/4e'/4g'/4!<)!!mp! (7:4:7a'/4!>(!g'/4e'/4c'/4a/4g/4e/4!>)!!p!(7:4:7c/4!<(!e/4g/4a/4c'/4e'/4g'/4!<)!!mf! (7:4:7a'/4!>(!g'/4e'/4c'/4a/4g/4e/4!>)!!p! (7:4:7c/4!<(!e/4g/4a/4c'/4e'/4g'/4!<)!!f![Q:1/4=90] a'/4!>(!g'/4e'/4c'/4 | %35
 a/4g/4e/4!>)!!p!c/4!<(!e/4g/4a/4c'/4e'/4g'/4!8va(!a'/4c''/4!<)!(3e''/4!p!d''/4!<(!c''/4(3_c''/4b'/4=a'/4 c''/4b'/4=a'/4g'/4f'/4e'/4d'/4!8va)!_c'/4b/4=a/4g/4f/4e/4d/4c/4B/4 | %36
 =A/4G/4F/4E/4D/4C/4[I:staff +1]B,/4=A,/4G,/4F,/4E,/4D,/4C,/4B,,/4=A,,/4!<)!G,,/4!ff![Q:1/4=10][I:staff -1] x/4[Q:1/4=76]!p![I:staff +1] B,,/4!<(![I:staff -1]x/4[I:staff +1]D,/4[I:staff -1]x/4[I:staff +1]G,/4[I:staff -1]x/4[I:staff +1]B,/4[I:staff -1]x/4D/4x/4G/4x/4B/4x/4d/4 | %37
x/4g/4x/4b/4x/4d'/4x/4e'/4x/4!8va(!b'/4x/4d''/4x/4[Q:1/4=60]g''/4!<)![Q:1/4=10]!f! x/[Q:1/4=50]!>(! (3e''/c''/=a'/!8va)![Q:1/4=112] f'e'c' | %38
[Q:1/4=80] =agf!>)![Q:1/4=40]!pp! !fermata!=e3[Q:1/4=112] g x | %39
[Q:1/4=88]!p! !tenuto!f x!p! !tenuto!b!pp! x!p! !tenuto!a x!p! g!pp! x |!mp! !tenuto!f x x2 x4 | %41
!mf! !tenuto!e x x2!8va(! x4!8va)! | %42
!p! b/4!<(!c'/4d'/4e'/4!8va(!f'/4=g'/4=a'/4b'/4 c''/4!<)!d''/4!mp!f''/4a'/4!>(!b'/4d''/4=e'/4=a'/4 f'/4b'/4c'/4e'/4d'/4f'/4=a/4c'/4 b/4d'/4=e/4a/4f/4b/4!>)!c/4!p!=e/4!8va)! | %43
!p! !tenuto!f x!p! !tenuto!b!pp! x!p! !tenuto!a x!p! g!pp! x |!mp! !tenuto!f x x2 x4 | %45
!mf! a x x2!8va(! x4!8va)! | %46
!p! f/4!<(!g/4a/4b/4a/4b/4c'/4d'/4c'/4d'/4e'/4f'/4c'/4=e'/4!<)!d'/4!mp!f'/4=g/4!>(!c'/4a/4d'/4=e/4g/4f/4a/4c/4e/4d/4f/4=G/4c/4A/4!>)!!p!d/4 | %47
!mp! !tenuto!f x!mp! !tenuto!b!p! x!mp! !tenuto!a x!mp! g!p! x |!mp! d x!mp! a!p! x!mp! g x x2 | %49
!mp! !tenuto!f x!mp! !tenuto!_c'!p! x!mf! !tenuto!b x!mf! f!mp! x |!mf! a x x2!mf! g x x2 | %51
 !tenuto!f x!f! !tenuto!b x!f! !tenuto!a x!f! g x |!f! !tenuto!f x x2 x4 | %53
!p! c x x2!8va(! x4!8va)! |!p! f x x2!p! B x x2 |!f![Q:1/4=80] [ff']2 [bb']2 [aa']2 [gg']2 | %56
 [ff']2 [ee']2 [dd']2 [cc'][Bb] | [cc']2 [ee'][gg'] f'/!mf! x/ x!f! f/!mf! x/ x | %58
[K:bass]!f! F/!mf! x/ x!f! F,/!mf! x/ x[Q:1/4=30] x4[Q:1/4=80] | %59
 x4[K:treble][I:staff +1] (5:4:5A,/4C/4[I:staff -1]B,/4E/4G/4[I:staff +1] (5:4:5C/4F/4[I:staff -1]E/4G/4B/4[I:staff +1] (5:4:5F/4=A/4[I:staff -1]G/4B/4e/4[I:staff +1] (5:4:5A/4c/4[I:staff -1]B/4e/4g/4 | %60
[I:staff +1] (5:4:5c/4f/4[I:staff -1]e/4g/4b/4[I:staff +1] (5:4:5f/4=a/4[I:staff -1]g/4b/4e'/4[I:staff +1] (5:4:5a/4c'/4[I:staff -1]b/4e'/4g'/4!8va(![I:staff +1] (5:4:5c'/4f'/4[I:staff -1]e'/4g'/4b'/4[I:staff +1] (5:4:5f'/4[I:staff -1]=a'/4g'/4b'/4e''/4[I:staff +1] (5:4:5=a'/4c''/4[I:staff -1]b'/4e''/4g''/4[I:staff +1] (5:4:5=a'/4c''/4[I:staff -1]b'/4e''/4g''/4[I:staff +1] (5:4:5=a'/4c''/4[I:staff -1]b'/4e''/4g''/4 | %61
[I:staff +1] (5:4:5=a'/4c''/4[I:staff -1]b'/4e''/4g''/4[I:staff +1] (5:4:5=a'/4c''/4[I:staff -1]b'/4e''/4g''/4!<(![I:staff +1] [a'c''f'']/4[I:staff -1][b'e''g'']/4[I:staff +1][a'c''f'']/4[I:staff -1][b'e''g'']/4[I:staff +1][a'c''f'']/4[I:staff -1][b'e''g'']/4[I:staff +1][a'c''f'']/4[I:staff -1][b'e''g'']/4[I:staff +1] [a'c''f'']/4[I:staff -1][b'e''g'']/4[I:staff +1][a'c''f'']/4[I:staff -1][b'e''g'']/4[I:staff +1][a'c''f'']/4[I:staff -1][b'e''g'']/4!<)![I:staff +1][a'c''f'']/4!fff![I:staff -1][b'e''g'']/4[I:staff +1] [a'c''f'']/4!>(![I:staff -1][b'e''g'']/4[I:staff +1][a'c''f'']/4[I:staff -1][b'e''g'']/4[I:staff +1][a'c''f'']/4[I:staff -1][b'e''g'']/4[I:staff +1][a'c''f'']/4[I:staff -1][b'e''g'']/4 | %62
[I:staff +1] [=a'c''f'']/4[I:staff -1][b'e''g'']/4[I:staff +1][a'c''f'']/4[I:staff -1][b'e''g'']/4[I:staff +1][a'c''f'']/4[I:staff -1][b'e''g'']/4[I:staff +1][a'c''f'']/4[I:staff -1][b'e''g'']/4!>)! | %63
!p![I:staff +1] [=a'c''f'']/4[I:staff -1]g''/4e''/4__e''/4[Q:1/4=70]"_poco a poco ritard."!pp!d''/4c''/4_e''/4_c''/4 b'/4b'/4=c''/4_a'/4[Q:1/4=60]=g'/4_g'/4=a'/4f'/4 _f'/4e'/4g'/4_e'/4!8va)![Q:1/4=50]d'/4c'/4_e'/4_c'/4 b/4=a/4=c'/4_a/4[Q:1/4=40]c'/4=g/4c'/4_g/4!pp![Q:1/4=35] ff[Q:1/4=30]f[Q:1/4=10]f | %64
[Q:1/4=70]"^Poco meno mosso." x2[Q:1/4=60]!p! f2 b2 a2 g2 |!p! f3!pp![Q:1/4=52] d/e/ f4 | %66
[Q:1/4=60]!pp! Te/8f/8e/8f/8e/8f/8e/8f/8e/8f/8e/8f/8e/8f/8e/8f/8e/8f/8e/8f/8e/8f/8e/8f/8!p! d/c/ f3!p! f | %67
 B3!<(! c d2 !arpeggio![EGce]2!<)! |!f! x2 [ff']2 [bb']2 [aa']2!>(! [gg']2 | %69
 [ff']3 [dd']/[ee']/ [ff']3 f'!>)! | %70
!pp! Te'/8f'/8e'/8f'/8e'/8f'/8e'/8f'/8e'/8f'/8e'/8f'/8e'/8f'/8e'/8f'/8e'/8f'/8e'/8f'/8e'/8f'/8e'/8f'/8[Q:1/4=66] d'/c'/ f'3 f | %71
 Te/8f/8e/8f/8e/8f/8e/8f/8e/8f/8e/8f/8e/8f/8e/8f/8e/8f/8e/8f/8e/8f/8e/8f/8[Q:1/4=60] d/c/[Q:1/4=66] f3!p! f' | %72
!<(! Te'/8f'/8e'/8f'/8e'/8f'/8e'/8f'/8e'/8f'/8e'/8f'/8e'/8f'/8e'/8f'/8!<)!e'/8!ff!f'/8!>(!e'/8f'/8e'/8f'/8e'/8f'/8e'/8f'/8e'/8f'/8e'/8f'/8e'/8f'/8e'/8f'/8e'/8f'/8e'/8f'/8e'/8f'/8e'/8f'/8e'/8f'/8e'/8f'/8e'/8f'/8e'/8f'/8e'/8f'/8e'/8f'/8e'/8f'/8!>)!!pp![Q:1/4=60] d'/c'/ | %73
[Q:1/4=112]!<(! e'/4=d'/4f'/4e'/4!8va(!g'/4f'/4a'/4e'/4 b'/4=a'/4c''/4b'/4d''/4c''/4e''/4!<)!=d''/4!f! f''/4e''/4!>(!c''/4b'/4[I:staff +1]g''/4e''/4c''/4b'/4[I:staff -1] c''/4b'/4g'/4f'/4!8va)![I:staff +1]e'/4c'/4b/4g/4 | %74
[Q:1/4=90][I:staff -1] f'/4e'/4c'/4b/4[I:staff +1]g/4e/4c/4B/4[Q:1/4=80][I:staff -1] c'/4b/4g/4f/4[I:staff +1]e/4c/4B/4G/4[Q:1/4=70][I:staff -1] f/4e/4c/4B/4[I:staff +1]G/4E/4C/4B,/4[Q:1/4=60][I:staff -1] c/4B/4G/4F/4[I:staff +1]E/4C/4B,/4G,/4!>)![Q:1/4=60]"_ritard"!p![I:staff -1] FE[Q:1/4=30]B,>C | %75
[Q:1/4=60]!p! z[Q:1/4=66] =d{/cd}c/B/b[Q:1/4=60] z[Q:1/4=66]"_poso a poco" =d'{/c'd'}c'/b/g | %76
[Q:1/4=56] z[Q:1/4=62]"_morendo"!>(! =d'{/c'd'}c'/b/b'[Q:1/4=52] z[Q:1/4=58]!8va(! =d''{/c''d''}c''/b'/g'!>)!!8va)! | %77
!pp! z!8va(!!>(! =d''{/c''d''}c''/b'/d''!8va)! z[Q:1/4=55]!8va(! d''{/c''d''}c''/b'/d''!8va)! | %78
 z!8va(! =d''{/c''d''}c''/b'/d''[Q:1/4=40]{/c''d''} c''/b'/d''!>)!!ppp![Q:1/4=30]{/c''d''} c''/b'/d''!8va)! | %79
[Q:1/4=50] z4!ppp! [B=db]2 z2 | B,2 z2 z4 |] %81
V:2
 z8 | !fermata!z8 |!ped! !arpeggio![B,,F,B,D] z z2!ped-up!!ped! G, z z2!ped-up! | %3
!ped! z z2 z !fermata!z4!ped-up! | z8 | !fermata!z8 |!ped! [E,B,] z z2!ped-up!!ped! z4!ped-up! | %7
!ped! x z z2 !fermata!z4!ped-up! | z8 | z8 |!ped! A, z z2!ped-up!!ped! z4!ped-up! | %11
!ped! x z z2 !fermata!z4!ped-up! | %12
!ped! B,,!pp! [F,B,][B,D][DF]!ped-up!!p!!ped! B,,!pp! [F,B,][B,D][DF]!ped-up! | %13
!p!!ped! B,,!pp! [F,B,][B,D][DF]!ped-up!!p!!ped! B,,!pp! [G,B,][B,E][EG]!ped-up! | %14
!p!!ped! B,,!pp! [F,B,D][B,DF][B,DF]!ped-up!!ped![DFB][B,DF]!pp![B,DF][F,B,D]!ped-up! | %15
!p!!ped! B,,!pp! [G,B,][B,E][EG]!ped-up!!p!!ped! =A,,!pp! [F,C][CE][EF]!ped-up! | %16
!p!!ped! B,,!pp! [F,B,D][B,DF][B,DF]!ped-up!!ped![DFB][B,DF]!pp![B,DF][F,B,D]!ped-up! | %17
!p!!ped! B,,!pp! [F,B,][B,D][DF]!ped-up!!p!!ped! B,,!pp! [G,B,][B,E][EG]!ped-up! | %18
!p!!ped! B,,!pp! [F,B,D][B,DF][B,DF]!ped-up!!ped![DFB][B,DF]!pp![B,DF][F,B,D]!ped-up! | %19
!p!!ped! A,,!pp! [F,A,][A,D][DF]!ped-up!!p!!ped! A,,,!pp! [G,A,][A,C][CA]!ped-up! | %20
!p!!ped! D,,!pp! [F,A,D][A,DF][A,DF]!ped-up!!ped![DFA][A,DF]!pp![A,DF][F,A,D]!ped-up! | %21
!p!!ped! !>!_C8!ped-up! | %22
!p!!ped! B,!pp! [G,D][B,G][G,D]!ped-up!!ped! [DB][B,G]!pp![B,G][G,D]!ped-up! | %23
!p!!ped! !>!_C8!ped-up! | %24
!p!!ped! B,!pp! [G,D][B,G][G,D]!ped-up!!ped! [DB][B,G]!pp![B,G][G,D]!ped-up! | %25
!p!!ped! =D,!pp! [B,F][FA][AB]!ped-up!!p!!ped! E,!pp! [B,E][EG][GB]!ped-up! | %26
!p!!ped! =A,,!pp! [F,C][CE][EF]!ped-up!!p!!ped! B,,!pp! [F,B,][B,D][DF]!ped-up! | %27
!p!!ped! G,!pp! [B,C][CE][EB]!ped-up!!p!!ped! F,!pp! [FB][DF][B,D]!ped-up! | %28
!p!!ped! F,,!pp! [F,=A,][A,E][EF]!ped-up!!p!!ped! B,,!pp! [F,B,][B,D][DF]!ped-up! | %29
!p!!ped! =D,!pp! [B,F][FA][AB]!ped-up!!p!!ped! E,!pp! [B,E][EG][GB]!ped-up! | %30
!p!!ped! =A,,!pp! [F,C][CE][EF]!ped-up!!p!!ped! B,,!pp! [F,B,][B,D][DF]!ped-up! | %31
!p!!ped! G,!pp! [B,C][CE][EB]!ped!!ped-up!!p!!<(! F, [FB][DF][B,D]!<)! | %32
!mp! !>!F,,!mp! [F,C][CE][E=A] !fermata!z4 | x8 |!ped! x2 x x4 x!ped-up! | %35
 x4 !arpeggio![F,CE=A]2 z2 | x8!ped!!ped-up! | x8!ped-up!!ped!!ped-up! | z8!ped-up!!ped! | %39
!p!!ped! [B,,F,] D{/CD}C/B,/B!ped-up!!ped! !arpeggio![E,B,E][K:treble] d{/cd}c/B/G!ped-up! | %40
[K:bass]!mp!!ped! B,,!p! [F,B,D][B,DF][K:treble]!mp! !tenuto!d/!tenuto!e/!ped-up!!ped! f!p! .[FB].[DF].[B,D]!ped-up! | %41
!ped! G, [CE][FB]!mf!!ped-up!!ped! !tenuto!d/!tenuto!c/ !tenuto!f!p!!ped-up!!ped! F,[CE=A]!mf! !tenuto!f!ped-up! | %42
!ped! !tenuto!B!p! B,[DF]!mf!!ped-up!!ped! !tenuto!c!mp! !tenuto!d2 x2!ped-up! | %43
[K:bass]!p!!ped! [B,,F,] D{/CD}C/B,/B!ped-up!!ped! !arpeggio![E,B,E][K:treble] d{/cd}c/B/G!ped-up! | %44
[K:bass]!mp!!ped! B,,!p! [F,B,D][B,DF][K:treble]!mp! !tenuto!d/!tenuto!e/!ped-up!!ped! f!p! .[FB].[DF][K:bass]!mp! __B,,!ped-up! | %45
!mf!!ped! A,,!p! .[F,A,D].[A,DF][K:treble]!mf! f/d/ a!p!!ped-up!!ped! .[A,EG].[EGc]!mf! g/e/!ped-up! | %46
!ped! d3!mf!!ped-up!!ped! e f2!ped-up!!ped! z2!ped-up! | %47
[K:bass]!mp!!ped! .[A,D].[D,_C] .D,.D,,!ped-up!!ped! .[CF].[F,D] .D,.D,,!ped-up! | %48
!ped! .[G,D].[D,B,] .D,.D,,!ped-up!!ped! .[B,G]!p!.[G,D] .[G,D].[D,B,]!ped-up! | %49
!ped! .[A,D].[D,_C]"^cresc." .D,.D,,!ped-up!!ped! .[A,F].[D,C]!mf! .=D,.=D,,!ped-up! | %50
!ped! .[G,E].[E,B,]"^cresc." ._D,.D,,!ped-up!!ped! .[G,E].[C,B,] .B,,.B,,,!ped-up! | %51
!f!!ped! [=A,,,=A,,]!mf! !arpeggio![F,CE]!arpeggio![B,,F,D]!f! [B,,,B,,]!mf!!ped-up!!ped! !arpeggio![E,,E,B,][K:treble] d{/cd}c/B/G!ped-up! | %52
[K:bass]!ped! =A,, [F,CE][CEF][K:treble]!f! !tenuto!e!mf! !tenuto!d!ped-up!!p!!ped! .[FB].[DF].[B,D]!ped-up! | %53
!p!!ped! G,!pp! .[B,E].[EB]!p! !tenuto!d/!tenuto!e/!ped-up!!ped! !tenuto!d!pp! [F,B,D]!p!!ped-up!!ped! !tenuto!B!pp! [B,DF]!ped-up! | %54
[K:bass]!ped! .[CE=A].[F,CE] .=F,.F,,!ped-up!!ped!!<(! .[B,DF].[F,B,D] .B,,.B,,,!ped-up!!<)! | %55
!f!!ped![I:staff -1] f/[I:staff +1][D,,D,]/[F,A,_C]/[I:staff -1][FA_c]/ b/[I:staff +1][=D,,=D,]/[F,A,B,]/[I:staff -1][FAB]/!ped-up!!ped! a/[I:staff +1][E,,E,]/[G,B,E]/[I:staff -1][EGc]/ g/[I:staff +1][A,,,A,,]/[E,G,=C]/[I:staff -1][EG=c]/!ped-up! | %56
!f!!ped! f/[I:staff +1][D,,D,]/[F,A,DF]/[I:staff -1][FAd]/ e/[I:staff +1][E,,E,]/[E,G,_CE]/[I:staff -1][G_c]/!ped-up!!ped! d/[I:staff +1][=E,,=E,]/[E,=G,B,D]/[I:staff -1][=GB]/ =c/[I:staff +1]!>![F,,F,]/[F,B,DF]/[I:staff -1][df]/!ped-up! | %57
!ped! c/[I:staff +1][G,,G,]/[G,B,E]/[I:staff -1][GB]/ e/!>![GB]/[I:staff +1][E,B,C]/[E,,E,]/!ped-up!!ped! [F,,F,][K:treble] x x[K:bass] x!ped-up! | %58
!ped! x4!ped-up!!ped!!f! !>!!fermata!F,,,3 C,,!ped-up! | %59
!ped! (5:4:5F,,/4=A,,/4[I:staff -1]G,,/4B,,/4F,/4[I:staff +1] (5:4:5A,,/4C,/4[I:staff -1]B,,/4E,/4G,/4[I:staff +1] (5:4:5C,/4F,/4[I:staff -1]E,/4G,/4B,/4[I:staff +1] (5:4:5F,/4=A,/4[I:staff -1]G,/4B,/4C/4!ped-up![I:staff +1] x2[K:treble] x2 | %60
 x8 | x8 | x2 | x8!ped-up!!ped! x4 |[K:bass]!ped!!pp! x/ D,,/D,/A,/[I:staff -1] _c8-!ped-up! | %65
[I:staff +1] [DA]8 |!ped!!pp! D2 C4 F2- | x2!ped-up! %67
!ped! F2 [B,G]2!ped-up!!ped! [__B,D]2 !arpeggio![A,,E,A,=C]2 | %68
!ped! (5:4:4D,,/D,/4[I:staff -1]G,/4_C/4(5:4:5F/4[I:staff +1][K:treble]D/4-A/4-_c/4-[I:staff -1]f/4-[I:staff +1] [DAc]8-!ped-up! | %69
 [DAc]8 |!ped! !arpeggio![Gceb]4!ped-up!!ped! !arpeggio![Fce=a]3 z | %71
!ped! !arpeggio![G,CEB]4!ped-up!!ped! !arpeggio![F,CE=A]3!ped-up! z | %72
!ped!!p! !arpeggio![Gde=a]2!mf! !arpeggio![Gceb]2 z4!ped-up! |!ped! x8!ped-up! | %74
 x4!ped-up!!ped! x[K:bass] x x2 x2 x2 |!ped! [F,B,]4!ped-up!!ped! x4!ped-up! | %76
[K:bass]!ped! x4[K:treble]!ped-up!!ped! x4[K:bass][K:treble]!ped-up! | %77
!pp!!ped!!>(! x2 !arpeggio![gbe']2!ped-up!!ped! x2 !arpeggio![gbe']2!ped-up! | %78
!ped! (3z/ B,/F/(3B/=d/f/ [gb][Bf]!ped-up!!ped! [gb][Bf]!>)!!ppp! [gb][Bf]!ped-up! | %79
 z4[K:bass]!ped! [B,F]2 z2!ped-up! |!ped! [B,,,B,,]2 z2 z4!ped-up! |] %81
V:3
 x8 | x8 | x4 !arpeggio![xDGB] x x2 | !arpeggio![DAdf] x x2!8va(! x4!8va)! | x8 | x8 | %6
 !arpeggio![xEG] x x2 !arpeggio![_CG_ce] x x2 | !arpeggio![Gdgb]!8va(! x x2 z4!8va)! | x8 | x8 | %10
 !arpeggio![xEGc] x x2 !arpeggio![Gceb] x x2 | !arpeggio![Fce=a]!8va(! x x2 x4!8va)! | x8 | x8 | %14
 x8 | x8 | x8 | x8 | x8 | x8 | x8 | x8 | x8 | x8 | x8 | x8 | x8 | x8 | x8 | x8 | x8 | x8 | x8 | %33
 x8 | %34
 (6:4:6c/4B/4G/4E/4C/4[I:staff +1]B,/4(6:4:6G,/4E,/4G,/4B,/4[I:staff -1]C/4E/4(6:4:6G/4B/4c/4e/4g/4b/4 (7:4:7c'/4b/4g/4e/4c/4B/4G/4(7:4:7E/4G/4B/4c/4e/4g/4b/4 (7:4:7c'/4b/4g/4e/4c/4B/4G/4 (7:4:7E/4G/4B/4c/4e/4g/4b/4 c'/4b/4g/4e/4 | %35
 c/4B/4G/4E/4G/4B/4c/4e/4g/4b/4!8va(!c'/4e'/4g' x4!8va)! | %36
 x4[I:staff +1] !>!F,,/4[I:staff -1]x/4[I:staff +1]=A,,/4[I:staff -1]x/4[I:staff +1]C,/4[I:staff -1]x/4[I:staff +1]F,/4[I:staff -1]x/4[I:staff +1]=A,/4[I:staff -1]x/4[I:staff +1]C/4[I:staff -1]x/4F/4x/4=A/4 x/4 | %37
c/4x/4f/4x/4=a/4x/4c'/4x/4f'/4!8va(!x/4=f'/4x/4c''/4 x/4 !fermata!f''/ x4!8va)! | x8 | %39
 d/!pp!F/[Bf]/d/ b/[d'b']/f'/b/ e/A/[Ba]/!pp!e/ !tenuto!g/[bg']/e'/g/ | %40
 d/!p!!<(!F/[Bf]/d/ f/b/!<)!!mp!f'/!>(!d'/ c'/b/f/d/ c/B/F/!>)!!p!f/ | %41
 e/4!p!G/4A/4!<(!B/4c/4d/4e/4f/4 g/4a/4b/4c'/4d'/4e'/4f'/4g'/4!8va(! =a'/4b'/4c''/4d''/4!<)!e''/4!mp!f''/4!>(!e''/4d''/4 c''/4b'/4a'/4g'/4!8va)!f'/4e'/4d'/4c'/4!>)! | %42
 x!8va(! x7!8va)! | d/!pp!F/[Bf]/d/ b/[d'b']/f'/b/ e/A/[Ba]/!pp!e/ !tenuto!g/[bg']/e'/g/ | %44
 d/!p!!<(!F/[Bf]/d/ f/b/!<)!!mp!f'/!>(!d'/ c'/b/f/d/ c/B/F/!>)!!p!f/ | %45
 a/4!p!c/4!<(!d/4e/4f/4g/4a/4b/4c'/4d'/4e'/4f'/4!8va(!g'/4a'/4b'/4c''/4d''/4!<)!e''/4!mp!f''/4!>(!e''/4d''/4c''/4b'/4a'/4g'/4f'/4e'/4d'/4!8va)!c'/4b/4a/4g/4!>)! | %46
 x8 | _c/!p!F/[cf]/d/ b/[d'b']/f'/b/ d/A/[da]/!p!f/ !tenuto!g/[af']/d'/f/ | %48
 G/!p!D/[Gd]/B/ a/[ba']/d'/a/ B/!p!A/[Bg]/d/ B/[db]/g/B/ | %49
 _c/!p!F/[cf]/d/ _c'/[d'_c'']/f'/c'/ d/B/[db]/!mp!f/ !tenuto!f/[af']/c'/f/ | %50
 e/!mp!A/[Ba]/e/ a/[ba']/e'/a/ B/G/[Bg]/!mf!e/ B/!f![eb]/g/B/ | %51
 c/!mf!F/[cf]/e/ b/!mf![d'b']/f'/b/ e/!mf!A/[Ba]/e/ !tenuto!g/!mf![bg']/e'/g/ | %52
 c/!mf!F/[=Af]/c/ f/=a/f'/!>(!d'/ c'/b/f/d/ c/B/F/!>)!!p!f/ | %53
 c/4!pp!d/4e/4f/4g/4a/4b/4c'/4d'/4e'/4f'/4g'/4!8va(!(5:4:5a'/4b'/4c''/4d''/4e''/4f''/4e''/4d''/4c''/4b'/4=a'/4b'/4_a'/4!8va)!g'/4f'/4e'/4d'/4c'/4b/4a/4g/4 | %54
 f/4g/4!pp!=a/4b/4c'/4d'/4f'/4d'/4 c'/4b/4a/4g/4f/4e/4d/4c/4 B/4!pp!=A/4!<(!B/4d/4c/4d/4f/4=e/4 f/4b/4=a/4b/4d'/4c'/4d'/4_e'/4!<)! | %55
 x8 | x8 | x4 c'/[fb]/[I:staff +1][ce]/[FB]/[I:staff -1] c/[FB]/[I:staff +1][CE]/[E,B,]/ | %58
[I:staff -1][K:bass] C/[F,B,]/[I:staff +1][C,E,]/[F,,B,,]/[I:staff -1] C,/[F,,B,,]/[I:staff +1][C,,E,,]/[G,,,B,,,]/[I:staff -1] x4 | %59
 x4[K:treble] x4 | x3!8va(! x5 | x8 | x2 | x5!8va)! x7 | x2 x8 | c8 | B4 =A2!pp! _A2- | %67
 A2 G2 G2 x2 | x10 | x8 | x8 | x8 | x8 | x!8va(! x6!8va)! x | x12 | %75
 !arpeggio!!>![x=D]4 !arpeggio!!>![G,B,EG]4 | !arpeggio!!>![=DFB=d]4 !arpeggio!!>![GBeg]4 | %77
 !arpeggio![=dfb=d']2!8va(! x2!8va)! !arpeggio![dfbd']2!8va(! x2!8va)! | %78
 !arpeggio![=dfb=d']!8va(! x e'd' e'd' e'd'!8va)! | x8 | x8 |] %81
V:4
 x8 | x8 | x8 | x8 | x8 | x8 | x8 | x8 | x8 | x8 | x8 | x8 | x8 | x8 | x8 | x8 | x8 | x8 | x8 | %19
 x8 | x8 | D,!pp! [A,D][DF][I:staff -1][Ad]!p![I:staff +1] D,!pp! [A,D][DF][I:staff -1][Ad] | %22
[I:staff +1] D, x x2 x4 | %23
 D,!pp! [A,D][DF][I:staff -1][Ad]!p![I:staff +1] D,!pp! [A,D][DF][I:staff -1][Ad] | %24
[I:staff +1] D, x x2 x4 | x8 | x8 | x8 | x8 | x8 | x8 | x8 | x8 | x8 | x8 | x8 | x8 | x8 | x8 | %39
 x5[K:treble] x3 |[K:bass] x3[K:treble] x5 | x8 | x4 z!p! .[FB].[DF].[B,D] | %43
[K:bass] x5[K:treble] x3 |[K:bass] x3[K:treble] x4[K:bass] x | x3[K:treble] x5 | %46
 z!p! .[FA].[DF] z z!p! [Ad][FA][DF] |[K:bass] x8 | x8 | x8 | x8 | x5[K:treble] x3 | %52
[K:bass] x3[K:treble] x5 | x8 |[K:bass] x8 | x8 | x8 | x5[K:treble] x2[K:bass] x | x8 | %59
 x6[K:treble] x2 | x8 | x8 | x2 | x12 |[K:bass] x2 [DA]8- | x8 | G,4 F,2 D,2 | G,4 E,2 x2 | %68
 x6/5[K:treble] x44/5 | x8 | x8 | x8 | x8 | x8 | x5[K:bass] x7 | %75
 (3z/!pp! B,,,/F,,/(3B,,/F,/B,/ (3=D/F/B,/(3D/F,/B,/ (3z/ E,,/B,,/(3E,/G,/B,/ (3E/G/B,/(3E/G,/B,/ | %76
[K:bass] (3z/ B,,/F,/(3B,/F/[K:treble]B/ (3=d/f/B/(3d/F/B/ (3z/[K:bass] E,/B,/(3E/[K:treble]G/B/ (3e/g/B/(3e/G/B/ | %77
 (3z/ B,/F/(3B/=d/f/ (3g/e/g/(3B/e/G/ (3z/ B,/F/(3B/d/f/ (3g/e/g/(3B/e/G/ | x8 | x4[K:bass] x4 | %80
 x8 |] %81
V:5
 x8 | x8 | x8 | x8 | x8 | x8 | x8 | x8 | x8 | x8 | x8 | x8 | x8 | x8 | x8 | x8 | x8 | x8 | x8 | %19
 x8 | x8 | x8 | x8 | x8 | x8 | x8 | x8 | x8 | x8 | x8 | x8 | x8 | x8 | x8 | x8 | x8 | x8 | x8 | %38
 x8 | x5[K:treble] x3 |[K:bass] x3[K:treble] x5 | x8 | x8 |[K:bass] x5[K:treble] x3 | %44
[K:bass] x3[K:treble] x4[K:bass] x | x3[K:treble] x5 | x8 |[K:bass] x8 | x8 | x8 | x8 | %51
 x5[K:treble] x3 |[K:bass] x3[K:treble] x5 | x8 |[K:bass] x8 | x8 | x8 | %57
 x5[K:treble] x2[K:bass] x | x8 | x6[K:treble] x2 | x8 | x8 | x2 | x12 |[K:bass] x10 | x8 | %66
 z4 E2 _C2- | C2 x2 x4 | x6/5[K:treble] x44/5 | x8 | x8 | x8 | x8 | x8 | x5[K:bass] x7 | x8 | %76
[K:bass] x5/3[K:treble] x8/3[K:bass] x[K:treble] x8/3 | x8 | x8 | x4[K:bass] x4 | x8 |] %81

